X: 538
T: Songhe gege
%%abc-version 2.0
%%abcx-abcm2ps-target-version 5.9.1 (29 Sep 2008)
%%abc-creator hum2abc beta
%%abcx-conversion-date 2013/10/02 07:52:30
%%abc-edited-by Helmut Schaffrath
%%humdrum-veritas 3093437876
%%humdrum-veritas-data 3033378241
%%continueall 1
%%barnumbers 0
L: 1/8
M: 2/4
K: F
F2F D [I:setbarnb 1]| 
c2c2 | 
d f c A | 
G FG2 | 
G Ac2 | 
f dc2 | 
A G F D | 
C4 | 
A GF2 | 
G c A c | 
G A F C | 
D4 | 
G Ac2 | 
f dc2 | 
F F D F | 
G A F D | 
C4 |]  



